X:5
T: New Reel
S: Mike Reynolds
Z: B.Black
R: reel
M: 4/4
L: 1/8
K: Ador
ag |: e2 AB cded | d2 BG dGBd | e2 AB cdea | gedB cAag |
e2 AB cdec | d2 BG dGBd | e2 AB cdea | gedB cA A2 :|
a2 ea aged | (3Bcd ef g2 fg | a2 ea agab | gedB BA A2 |
a2 ea aged | (3Bcd ef g2 fg | afge fdef | gedB BA A2 :|
